X:1
T:Policeman's Holiday
M:6/8
R:Jig
L:1/8
Q:180
N:From Feldman and O'Doherty's "The Northern Fiddler"
N:As played by John Doherty
K:D
|:ge|dBG B,DG|Bdd dBG|ecA A,B,E|Ace gfe|
dBG B,DG|Bdd dcB|Ace agd|{g}fed d:||
|:ef|gea fdg|ece dBG|GBd gfe|dBG GBd|
gea fdg|ece dcB|Ace agd|{g}fed d:||
|:c=c|B=c^c dbf|agd {g}fe-e|dbf agd|{g}fed bge|
dbf agd|Bag gdB|Ace agd|{g}fed d:||
